exports/global-plastics-production_v1_850x600.svg

<svg xmlns="http://www.w3.org/2000/svg" version="1.1" style="background-color:#fff;-webkit-font-smoothing:antialiased" width="850" height="600" font-family="'Helvetica Neue',Helvetica,Arial,sans-serif" font-size="18" text-rendering="optimizeLegibility"><g class="ChartTab"><g class="HeaderView"><g opacity=".8" transform="matrix(.27 0 0 .27 778 15)"><a xmlns:xlink="http://www.w3.org/1999/xlink" xlink:href="https://ourworldindata.org" target="_blank"><g><path fill="#1B2543" d="M0 0h211.2v130.1H0z"/><path fill="#E63912" d="M0 112.2h211.2v17.9H0z"/><g><path fill="none" d="M1.2 12.3h210.2v99.2H1.2z"/><path fill="#FFF" d="M37.8 32.2c0 12.7-7.7 19.4-17.1 19.4-9.7 0-16.6-7.5-16.6-18.7 0-11.7 7.3-19.3 17.1-19.3 10.1.1 16.6 7.7 16.6 18.6zm-28.6.6c0 7.9 4.3 14.9 11.8 14.9 7.5 0 11.8-6.9 11.8-15.3 0-7.3-3.8-14.9-11.8-14.9-7.9 0-11.8 7.3-11.8 15.3zM62.7 43.8c0 2.7.1 5.1.2 7.2h-4.3l-.3-4.3h-.1c-1.3 2.1-4 4.9-8.8 4.9-4.2 0-9.1-2.3-9.1-11.6V24.6h4.8v14.6c0 5 1.5 8.4 5.9 8.4 3.2 0 5.5-2.2 6.3-4.4.3-.7.4-1.6.4-2.5V24.6h4.8v19.2zM67.3 32.8c0-3.1-.1-5.8-.2-8.2h4.2l.2 5.2h.2c1.2-3.5 4.1-5.8 7.3-5.8.5 0 .9.1 1.4.2v4.5c-.5-.1-1-.2-1.6-.2-3.4 0-5.8 2.6-6.5 6.2-.1.7-.2 1.4-.2 2.2V51h-4.8V32.8zM95.4 51L86 14.2h5l4.4 18.6c1.1 4.6 2.1 9.2 2.7 12.7h.1c.6-3.7 1.8-8 3-12.8l4.9-18.5h5l4.5 18.7c1 4.4 2 8.7 2.6 12.6h.1c.8-4 1.8-8.1 3-12.7l4.9-18.5h4.9L120.6 51h-5L111 31.9c-1.1-4.7-1.9-8.3-2.4-12h-.1c-.7 3.7-1.5 7.3-2.8 12L100.4 51h-5zM154.9 37.6c0 9.8-6.8 14-13.2 14-7.2 0-12.7-5.2-12.7-13.6 0-8.8 5.8-14 13.1-14 7.7 0 12.8 5.5 12.8 13.6zm-21 .3c0 5.8 3.3 10.1 8 10.1 4.6 0 8-4.3 8-10.3 0-4.5-2.2-10.1-7.9-10.1s-8.1 5.2-8.1 10.3zM158.2 32.8c0-3.1-.1-5.8-.2-8.2h4.2l.2 5.2h.2c1.2-3.5 4.1-5.8 7.3-5.8.5 0 .9.1 1.4.2v4.5c-.5-.1-1-.2-1.6-.2-3.4 0-5.8 2.6-6.5 6.2-.1.7-.2 1.4-.2 2.2V51h-4.8V32.8zM173.5 12.3h4.8V51h-4.8V12.3zM206.5 12.3v31.9c0 2.3.1 5 .2 6.8h-4.3l-.2-4.6h-.2c-1.5 2.9-4.7 5.2-9 5.2-6.4 0-11.3-5.4-11.3-13.4-.1-8.8 5.4-14.2 11.9-14.2 4 0 6.8 1.9 8 4h.1V12.3h4.8zm-4.8 23.1c0-.6-.1-1.4-.2-2a7 7 0 00-6.9-5.6c-5 0-7.9 4.4-7.9 10.2 0 5.3 2.6 9.8 7.8 9.8 3.2 0 6.2-2.1 7.1-5.7.2-.7.2-1.3.2-2.1v-4.6zM42.8 64c.1 1.6-1.1 2.9-3.1 2.9-1.7 0-2.9-1.3-2.9-2.9 0-1.7 1.3-3 3-3 1.9 0 3 1.3 3 3zm-5.4 33.8V71.4h4.8v26.4h-4.8zM47.5 78.6c0-2.7-.1-5-.2-7.1h4.3l.3 4.4h.1c1.3-2.5 4.4-5 8.8-5 3.7 0 9.4 2.2 9.4 11.2v15.8h-4.8V82.6c0-4.3-1.6-7.8-6.1-7.8-3.2 0-5.6 2.2-6.5 4.9-.2.6-.3 1.4-.3 2.2v15.9h-4.8V78.6zM84 61.6c2.9-.4 6.3-.8 10.1-.8 6.8 0 11.7 1.6 14.9 4.6 3.3 3 5.2 7.3 5.2 13.2 0 6-1.9 10.9-5.3 14.3-3.4 3.4-9.1 5.3-16.3 5.3-3.4 0-6.2-.2-8.6-.4V61.6zm4.8 32.5c1.2.2 3 .3 4.8.3 10.2 0 15.7-5.7 15.7-15.6.1-8.7-4.9-14.2-14.9-14.2-2.5 0-4.3.2-5.6.5v29zM132.1 97.8l-.4-3.3h-.2a9.79 9.79 0 01-8.1 3.9c-5.4 0-8.1-3.8-8.1-7.6 0-6.4 5.7-9.9 15.9-9.8v-.5c0-2.2-.6-6.1-6-6.1-2.5 0-5 .8-6.9 2l-1.1-3.2c2.2-1.4 5.4-2.3 8.7-2.3 8.1 0 10.1 5.5 10.1 10.8v9.9c0 2.3.1 4.5.4 6.3h-4.3zm-.7-13.4c-5.3-.1-11.2.8-11.2 5.9 0 3.1 2.1 4.6 4.5 4.6 3.4 0 5.6-2.2 6.4-4.4.2-.5.3-1 .3-1.5v-4.6zM146.6 63.9v7.6h6.9v3.7h-6.9v14.2c0 3.3.9 5.1 3.6 5.1 1.3 0 2.2-.2 2.8-.3l.2 3.6c-.9.4-2.4.7-4.3.7-2.2 0-4-.7-5.2-2-1.4-1.4-1.9-3.8-1.9-6.9V75.1h-4.1v-3.7h4.1v-6.3l4.8-1.2zM171.4 97.8l-.4-3.3h-.2a9.79 9.79 0 01-8.1 3.9c-5.4 0-8.1-3.8-8.1-7.6 0-6.4 5.7-9.9 15.9-9.8v-.5c0-2.2-.6-6.1-6-6.1-2.5 0-5 .8-6.9 2l-1.1-3.2c2.2-1.4 5.4-2.3 8.7-2.3 8.1 0 10.1 5.5 10.1 10.8v9.9c0 2.3.1 4.5.4 6.3h-4.3zm-.7-13.4c-5.3-.1-11.2.8-11.2 5.9 0 3.1 2.1 4.6 4.5 4.6 3.4 0 5.6-2.2 6.4-4.4.2-.5.3-1 .3-1.5v-4.6z"/></g></g></a></g><a href="https://ourworldindata.org/grapher/global-plastics-production" target="_blank"><text font-size="25.2" x="15" y="35.2" fill="#555"><tspan x="15" y="35.16">Global plastics production</tspan></text></a><text font-size="14.4" x="15" y="53.7" fill="#666"><tspan x="15" y="53.72">Annual global polymer resin and fiber production (plastic production), measured in metric tonnes per year.</tspan></text></g><g class="LineChart"><defs><clipPath id="a"><path d="M141.06 0h830v959.8h-830z"/></clipPath></defs><g class="AxisBoxView"><g class="HorizontalAxis" fill="#666" text-anchor="middle" font-size="16.2"><text x="151.1" y="556.5">1950</text><text x="245.5" y="556.5">1960</text><text x="339.9" y="556.5">1970</text><text x="434.3" y="556.5">1980</text><text x="528.7" y="556.5">1990</text><text x="623.1" y="556.5">2000</text><text x="717.6" y="556.5">2010</text><text x="764.8" y="556.5">2015</text></g><g class="VerticalAxis" fill="#666" dominant-baseline="middle" text-anchor="end" font-size="16.2"><text x="146.06" y="535.3">0 tonnes</text><text x="146.06" y="475.1">50 million tonnes</text><text x="146.06" y="414.9">100 million tonnes</text><text x="146.06" y="354.7">150 million tonnes</text><text x="146.06" y="294.5">200 million tonnes</text><text x="146.06" y="234.3">250 million tonnes</text><text x="146.06" y="174.1">300 million tonnes</text><text x="146.06" y="113.9">350 million tonnes</text></g><g class="AxisGridLines"><path stroke="#ccc" d="M151.06 535.3h613.7"/><path stroke="#ddd" stroke-dasharray="3,2" d="M151.06 475.1h613.7M151.06 414.9h613.7M151.06 354.7h613.7M151.06 294.5h613.7M151.06 234.3h613.7M151.06 174.1h613.7M151.06 113.9h613.7"/></g></g><g clip-path="url(#a)"><g class="HeightedLegend clickable"><g class="legendMark"><text font-size="13.5" x="769.8" y="80.6" fill="#3360a9"><tspan x="769.76" y="80.65">World</tspan></text></g></g><g class="Lines"><g class="key-World_0"><path stroke="#3360a9" stroke-linecap="round" d="M151 533h19l9-1h10l9-1 10-2h9l10-1 9-1 10-1 9-1 9-3 10-2 9-3 10-2 9-4 10-3 9-5 9-6 10-4 9-3 10-8 9-8 10-1 9 7 10-10 9-6 9-6 10-8 9 1 10-2 9-2 10-8 9-7 10-5 9-7 9-10 10-7 9-5 10-7 9-5 10-10 9-6 10-16 9-6 9-15 10-14 9-10 10-17 9-13 10-6 9-16 10-12 9-18 9-8 10-21 9-18 10 17 9-8 10-30 9-15 9-16 10-16 9-18 10-17" fill="none" stroke-width="1.5"/><g fill="#3360a9"><circle cx="151" cy="533" r="2"/><circle cx="161" cy="533" r="2"/><circle cx="170" cy="533" r="2"/><circle cx="179" cy="532" r="2"/><circle cx="189" cy="532" r="2"/><circle cx="198" cy="531" r="2"/><circle cx="208" cy="529" r="2"/><circle cx="217" cy="529" r="2"/><circle cx="227" cy="528" r="2"/><circle cx="236" cy="527" r="2"/><circle cx="246" cy="526" r="2"/><circle cx="255" cy="525" r="2"/><circle cx="264" cy="522" r="2"/><circle cx="274" cy="520" r="2"/><circle cx="283" cy="517" r="2"/><circle cx="293" cy="515" r="2"/><circle cx="302" cy="511" r="2"/><circle cx="312" cy="508" r="2"/><circle cx="321" cy="503" r="2"/><circle cx="330" cy="497" r="2"/><circle cx="340" cy="493" r="2"/><circle cx="349" cy="490" r="2"/><circle cx="359" cy="482" r="2"/><circle cx="368" cy="474" r="2"/><circle cx="378" cy="473" r="2"/><circle cx="387" cy="480" r="2"/><circle cx="397" cy="470" r="2"/><circle cx="406" cy="464" r="2"/><circle cx="415" cy="458" r="2"/><circle cx="425" cy="450" r="2"/><circle cx="434" cy="451" r="2"/><circle cx="444" cy="449" r="2"/><circle cx="453" cy="447" r="2"/><circle cx="463" cy="439" r="2"/><circle cx="472" cy="432" r="2"/><circle cx="482" cy="427" r="2"/><circle cx="491" cy="420" r="2"/><circle cx="500" cy="410" r="2"/><circle cx="510" cy="403" r="2"/><circle cx="519" cy="398" r="2"/><circle cx="529" cy="391" r="2"/><circle cx="538" cy="386" r="2"/><circle cx="548" cy="376" r="2"/><circle cx="557" cy="370" r="2"/><circle cx="567" cy="354" r="2"/><circle cx="576" cy="348" r="2"/><circle cx="585" cy="333" r="2"/><circle cx="595" cy="319" r="2"/><circle cx="604" cy="309" r="2"/><circle cx="614" cy="292" r="2"/><circle cx="623" cy="279" r="2"/><circle cx="633" cy="273" r="2"/><circle cx="642" cy="257" r="2"/><circle cx="652" cy="245" r="2"/><circle cx="661" cy="227" r="2"/><circle cx="670" cy="219" r="2"/><circle cx="680" cy="198" r="2"/><circle cx="689" cy="180" r="2"/><circle cx="699" cy="197" r="2"/><circle cx="708" cy="189" r="2"/><circle cx="718" cy="159" r="2"/><circle cx="727" cy="144" r="2"/><circle cx="736" cy="128" r="2"/><circle cx="746" cy="112" r="2"/><circle cx="755" cy="94" r="2"/><circle cx="765" cy="77" r="2"/></g></g></g></g></g><g class="SourcesFooter" fill="#777"><g class="clickable" fill="#777"><text font-size="12.6" x="15" y="581.6"><tspan x="15" y="581.58">Source: Geyer et al. (2017)</tspan></text></g><text font-size="12.6" x="775.4" y="581.6"><tspan x="775.4" y="581.58"><a class="cclogo" href="http://creativecommons.org/licenses/by-sa/4.0/deed.en_US" target="_blank" fill="#777">CC BY-SA</a></tspan></text></g></g></svg>

<svg xmlns="http://www.w3.org/2000/svg" version="1.1" style="font-family: 'Helvetica Neue', Helvetica, Arial, sans-serif; font-size: 18px; background-color: white; text-rendering: optimizeLegibility; -webkit-font-smoothing: antialiased;" width="850" height="600"><g class="ChartTab"><g class="HeaderView"><g opacity="0.8" transform="translate(778, 15) scale(0.27)"><a xmlns:xlink="http://www.w3.org/1999/xlink" xlink:href="https://ourworldindata.org" target="_blank"><g><rect x="0" y="0" fill="#1B2543" width="211.2" height="130.1"/><rect x="0" y="112.2" fill="#E63912" width="211.2" height="17.9"/><g><rect x="1.2" y="12.3" fill="none" width="210.2" height="99.2"/><path fill="#FFFFFF" d="M37.8,32.2c0,12.7-7.7,19.4-17.1,19.4c-9.7,0-16.6-7.5-16.6-18.7c0-11.7,7.3-19.3,17.1-19.3 C31.3,13.7,37.8,21.3,37.8,32.2z M9.2,32.8c0,7.9,4.3,14.9,11.8,14.9c7.5,0,11.8-6.9,11.8-15.3c0-7.3-3.8-14.9-11.8-14.9 C13.1,17.5,9.2,24.8,9.2,32.8z"/><path fill="#FFFFFF" d="M62.7,43.8c0,2.7,0.1,5.1,0.2,7.2h-4.3l-0.3-4.3h-0.1c-1.3,2.1-4,4.9-8.8,4.9c-4.2,0-9.1-2.3-9.1-11.6 V24.6h4.8v14.6c0,5,1.5,8.4,5.9,8.4c3.2,0,5.5-2.2,6.3-4.4c0.3-0.7,0.4-1.6,0.4-2.5V24.6h4.8V43.8z"/><path fill="#FFFFFF" d="M67.3,32.8c0-3.1-0.1-5.8-0.2-8.2h4.2l0.2,5.2h0.2c1.2-3.5,4.1-5.8,7.3-5.8c0.5,0,0.9,0.1,1.4,0.2v4.5 c-0.5-0.1-1-0.2-1.6-0.2c-3.4,0-5.8,2.6-6.5,6.2c-0.1,0.7-0.2,1.4-0.2,2.2V51h-4.8V32.8z"/><path fill="#FFFFFF" d="M95.4,51l-9.4-36.8h5l4.4,18.6c1.1,4.6,2.1,9.2,2.7,12.7h0.1c0.6-3.7,1.8-8,3-12.8l4.9-18.5h5l4.5,18.7 c1,4.4,2,8.7,2.6,12.6h0.1c0.8-4,1.8-8.1,3-12.7l4.9-18.5h4.9L120.6,51h-5L111,31.9c-1.1-4.7-1.9-8.3-2.4-12h-0.1 c-0.7,3.7-1.5,7.3-2.8,12L100.4,51H95.4z"/><path fill="#FFFFFF" d="M154.9,37.6c0,9.8-6.8,14-13.2,14c-7.2,0-12.7-5.2-12.7-13.6c0-8.8,5.8-14,13.1-14 C149.8,24,154.9,29.5,154.9,37.6z M133.9,37.9c0,5.8,3.3,10.1,8,10.1c4.6,0,8-4.3,8-10.3c0-4.5-2.2-10.1-7.9-10.1 C136.3,27.6,133.9,32.8,133.9,37.9z"/><path fill="#FFFFFF" d="M158.2,32.8c0-3.1-0.1-5.8-0.2-8.2h4.2l0.2,5.2h0.2c1.2-3.5,4.1-5.8,7.3-5.8c0.5,0,0.9,0.1,1.4,0.2v4.5 c-0.5-0.1-1-0.2-1.6-0.2c-3.4,0-5.8,2.6-6.5,6.2c-0.1,0.7-0.2,1.4-0.2,2.2V51h-4.8V32.8z"/><path fill="#FFFFFF" d="M173.5,12.3h4.8V51h-4.8V12.3z"/><path fill="#FFFFFF" d="M206.5,12.3v31.9c0,2.3,0.1,5,0.2,6.8h-4.3l-0.2-4.6H202c-1.5,2.9-4.7,5.2-9,5.2 c-6.4,0-11.3-5.4-11.3-13.4c-0.1-8.8,5.4-14.2,11.9-14.2c4,0,6.8,1.9,8,4h0.1V12.3H206.5z M201.7,35.4c0-0.6-0.1-1.4-0.2-2 c-0.7-3.1-3.3-5.6-6.9-5.6c-5,0-7.9,4.4-7.9,10.2c0,5.3,2.6,9.8,7.8,9.8c3.2,0,6.2-2.1,7.1-5.7c0.2-0.7,0.2-1.3,0.2-2.1V35.4z"/><path fill="#FFFFFF" d="M42.8,64c0.1,1.6-1.1,2.9-3.1,2.9c-1.7,0-2.9-1.3-2.9-2.9c0-1.7,1.3-3,3-3C41.7,61,42.8,62.3,42.8,64z M37.4,97.8V71.4h4.8v26.4H37.4z"/><path fill="#FFFFFF" d="M47.5,78.6c0-2.7-0.1-5-0.2-7.1h4.3l0.3,4.4h0.1c1.3-2.5,4.4-5,8.8-5c3.7,0,9.4,2.2,9.4,11.2v15.8h-4.8 V82.6c0-4.3-1.6-7.8-6.1-7.8c-3.2,0-5.6,2.2-6.5,4.9c-0.2,0.6-0.3,1.4-0.3,2.2v15.9h-4.8V78.6z"/><path fill="#FFFFFF" d="M84,61.6c2.9-0.4,6.3-0.8,10.1-0.8c6.8,0,11.7,1.6,14.9,4.6c3.3,3,5.2,7.3,5.2,13.2c0,6-1.9,10.9-5.3,14.3 c-3.4,3.4-9.1,5.3-16.3,5.3c-3.4,0-6.2-0.2-8.6-0.4V61.6z M88.8,94.1c1.2,0.2,3,0.3,4.8,0.3c10.2,0,15.7-5.7,15.7-15.6 c0.1-8.7-4.9-14.2-14.9-14.2c-2.5,0-4.3,0.2-5.6,0.5V94.1z"/><path fill="#FFFFFF" d="M132.1,97.8l-0.4-3.3h-0.2c-1.5,2.1-4.3,3.9-8.1,3.9c-5.4,0-8.1-3.8-8.1-7.6c0-6.4,5.7-9.9,15.9-9.8v-0.5 c0-2.2-0.6-6.1-6-6.1c-2.5,0-5,0.8-6.9,2l-1.1-3.2c2.2-1.4,5.4-2.3,8.7-2.3c8.1,0,10.1,5.5,10.1,10.8v9.9c0,2.3,0.1,4.5,0.4,6.3 H132.1z M131.4,84.4c-5.3-0.1-11.2,0.8-11.2,5.9c0,3.1,2.1,4.6,4.5,4.6c3.4,0,5.6-2.2,6.4-4.4c0.2-0.5,0.3-1,0.3-1.5V84.4z"/><path fill="#FFFFFF" d="M146.6,63.9v7.6h6.9v3.7h-6.9v14.2c0,3.3,0.9,5.1,3.6,5.1c1.3,0,2.2-0.2,2.8-0.3l0.2,3.6 c-0.9,0.4-2.4,0.7-4.3,0.7c-2.2,0-4-0.7-5.2-2c-1.4-1.4-1.9-3.8-1.9-6.9V75.1h-4.1v-3.7h4.1v-6.3L146.6,63.9z"/><path fill="#FFFFFF" d="M171.4,97.8l-0.4-3.3h-0.2c-1.5,2.1-4.3,3.9-8.1,3.9c-5.4,0-8.1-3.8-8.1-7.6c0-6.4,5.7-9.9,15.9-9.8v-0.5 c0-2.2-0.6-6.1-6-6.1c-2.5,0-5,0.8-6.9,2l-1.1-3.2c2.2-1.4,5.4-2.3,8.7-2.3c8.1,0,10.1,5.5,10.1,10.8v9.9c0,2.3,0.1,4.5,0.4,6.3 H171.4z M170.7,84.4c-5.3-0.1-11.2,0.8-11.2,5.9c0,3.1,2.1,4.6,4.5,4.6c3.4,0,5.6-2.2,6.4-4.4c0.2-0.5,0.3-1,0.3-1.5V84.4z"/></g></g></a></g><a href="https://ourworldindata.org/grapher/global-plastics-production" target="_blank"><text font-size="25.20" x="15.0" y="35.2" fill="#555"><tspan x="15" y="35.160000000000004">Global plastics production</tspan></text></a><text font-size="14.40" x="15.0" y="53.7" fill="#666"><tspan x="15" y="53.72">Annual global polymer resin and fiber production (plastic production), measured in metric tonnes per year.</tspan></text></g><g class="LineChart"><defs><clipPath id="boundsClip-99"><rect x="141.058" y="0" width="830" height="959.8"></rect></clipPath></defs><g class="AxisBoxView"><g class="HorizontalAxis"><text x="151.1" y="556.5" fill="#666" text-anchor="middle" font-size="16.2">1950</text><text x="245.5" y="556.5" fill="#666" text-anchor="middle" font-size="16.2">1960</text><text x="339.9" y="556.5" fill="#666" text-anchor="middle" font-size="16.2">1970</text><text x="434.3" y="556.5" fill="#666" text-anchor="middle" font-size="16.2">1980</text><text x="528.7" y="556.5" fill="#666" text-anchor="middle" font-size="16.2">1990</text><text x="623.1" y="556.5" fill="#666" text-anchor="middle" font-size="16.2">2000</text><text x="717.6" y="556.5" fill="#666" text-anchor="middle" font-size="16.2">2010</text><text x="764.8" y="556.5" fill="#666" text-anchor="middle" font-size="16.2">2015</text></g><g class="VerticalAxis"><text x="146.06" y="535.3" fill="#666" dominant-baseline="middle" text-anchor="end" font-size="16.2">0 tonnes</text><text x="146.06" y="475.1" fill="#666" dominant-baseline="middle" text-anchor="end" font-size="16.2">50 million tonnes</text><text x="146.06" y="414.9" fill="#666" dominant-baseline="middle" text-anchor="end" font-size="16.2">100 million tonnes</text><text x="146.06" y="354.7" fill="#666" dominant-baseline="middle" text-anchor="end" font-size="16.2">150 million tonnes</text><text x="146.06" y="294.5" fill="#666" dominant-baseline="middle" text-anchor="end" font-size="16.2">200 million tonnes</text><text x="146.06" y="234.3" fill="#666" dominant-baseline="middle" text-anchor="end" font-size="16.2">250 million tonnes</text><text x="146.06" y="174.1" fill="#666" dominant-baseline="middle" text-anchor="end" font-size="16.2">300 million tonnes</text><text x="146.06" y="113.9" fill="#666" dominant-baseline="middle" text-anchor="end" font-size="16.2">350 million tonnes</text></g><g class="AxisGridLines"><line x1="151.06" y1="535.3" x2="764.76" y2="535.3" stroke="#ccc"></line><line x1="151.06" y1="475.1" x2="764.76" y2="475.1" stroke="#ddd" stroke-dasharray="3,2"></line><line x1="151.06" y1="414.9" x2="764.76" y2="414.9" stroke="#ddd" stroke-dasharray="3,2"></line><line x1="151.06" y1="354.7" x2="764.76" y2="354.7" stroke="#ddd" stroke-dasharray="3,2"></line><line x1="151.06" y1="294.5" x2="764.76" y2="294.5" stroke="#ddd" stroke-dasharray="3,2"></line><line x1="151.06" y1="234.3" x2="764.76" y2="234.3" stroke="#ddd" stroke-dasharray="3,2"></line><line x1="151.06" y1="174.1" x2="764.76" y2="174.1" stroke="#ddd" stroke-dasharray="3,2"></line><line x1="151.06" y1="113.9" x2="764.76" y2="113.9" stroke="#ddd" stroke-dasharray="3,2"></line></g></g><g clip-path="url(#boundsClip-99)"><g class="HeightedLegend clickable"><g class="legendMark"><rect x="764.765" y="69.85" width="70.235" height="13.5" fill="#fff" opacity="0"></rect><text font-size="13.50" x="769.8" y="80.6" fill="#3360a9"><tspan x="769.765" y="80.64999999999999">World</tspan></text></g></g><g class="Lines"><rect x="151" y="77" width="614" height="459" fill="rgba(255,255,255,0)" opacity="0"></rect><g class="key-World_0"><path stroke="#3360a9" stroke-linecap="round" d="M151 533L161 533L170 533L179 532L189 532L198 531L208 529L217 529L227 528L236 527L246 526L255 525L264 522L274 520L283 517L293 515L302 511L312 508L321 503L330 497L340 493L349 490L359 482L368 474L378 473L387 480L397 470L406 464L415 458L425 450L434 451L444 449L453 447L463 439L472 432L482 427L491 420L500 410L510 403L519 398L529 391L538 386L548 376L557 370L567 354L576 348L585 333L595 319L604 309L614 292L623 279L633 273L642 257L652 245L661 227L670 219L680 198L689 180L699 197L708 189L718 159L727 144L736 128L746 112L755 94L765 77" fill="none" stroke-width="1.5"></path><g fill="#3360a9"><circle cx="151" cy="533" r="2"></circle><circle cx="161" cy="533" r="2"></circle><circle cx="170" cy="533" r="2"></circle><circle cx="179" cy="532" r="2"></circle><circle cx="189" cy="532" r="2"></circle><circle cx="198" cy="531" r="2"></circle><circle cx="208" cy="529" r="2"></circle><circle cx="217" cy="529" r="2"></circle><circle cx="227" cy="528" r="2"></circle><circle cx="236" cy="527" r="2"></circle><circle cx="246" cy="526" r="2"></circle><circle cx="255" cy="525" r="2"></circle><circle cx="264" cy="522" r="2"></circle><circle cx="274" cy="520" r="2"></circle><circle cx="283" cy="517" r="2"></circle><circle cx="293" cy="515" r="2"></circle><circle cx="302" cy="511" r="2"></circle><circle cx="312" cy="508" r="2"></circle><circle cx="321" cy="503" r="2"></circle><circle cx="330" cy="497" r="2"></circle><circle cx="340" cy="493" r="2"></circle><circle cx="349" cy="490" r="2"></circle><circle cx="359" cy="482" r="2"></circle><circle cx="368" cy="474" r="2"></circle><circle cx="378" cy="473" r="2"></circle><circle cx="387" cy="480" r="2"></circle><circle cx="397" cy="470" r="2"></circle><circle cx="406" cy="464" r="2"></circle><circle cx="415" cy="458" r="2"></circle><circle cx="425" cy="450" r="2"></circle><circle cx="434" cy="451" r="2"></circle><circle cx="444" cy="449" r="2"></circle><circle cx="453" cy="447" r="2"></circle><circle cx="463" cy="439" r="2"></circle><circle cx="472" cy="432" r="2"></circle><circle cx="482" cy="427" r="2"></circle><circle cx="491" cy="420" r="2"></circle><circle cx="500" cy="410" r="2"></circle><circle cx="510" cy="403" r="2"></circle><circle cx="519" cy="398" r="2"></circle><circle cx="529" cy="391" r="2"></circle><circle cx="538" cy="386" r="2"></circle><circle cx="548" cy="376" r="2"></circle><circle cx="557" cy="370" r="2"></circle><circle cx="567" cy="354" r="2"></circle><circle cx="576" cy="348" r="2"></circle><circle cx="585" cy="333" r="2"></circle><circle cx="595" cy="319" r="2"></circle><circle cx="604" cy="309" r="2"></circle><circle cx="614" cy="292" r="2"></circle><circle cx="623" cy="279" r="2"></circle><circle cx="633" cy="273" r="2"></circle><circle cx="642" cy="257" r="2"></circle><circle cx="652" cy="245" r="2"></circle><circle cx="661" cy="227" r="2"></circle><circle cx="670" cy="219" r="2"></circle><circle cx="680" cy="198" r="2"></circle><circle cx="689" cy="180" r="2"></circle><circle cx="699" cy="197" r="2"></circle><circle cx="708" cy="189" r="2"></circle><circle cx="718" cy="159" r="2"></circle><circle cx="727" cy="144" r="2"></circle><circle cx="736" cy="128" r="2"></circle><circle cx="746" cy="112" r="2"></circle><circle cx="755" cy="94" r="2"></circle><circle cx="765" cy="77" r="2"></circle></g></g></g></g></g><g style="fill: #777;" class="SourcesFooter"><g style="fill: #777;" class="clickable"><text font-size="12.60" x="15.0" y="581.6"><tspan x="15" y="581.58">Source: Geyer et al. (2017)</tspan></text></g><text font-size="12.60" x="775.4" y="581.6"><tspan x="775.402" y="581.58"><a style="fill: #777;" class="cclogo" href="http://creativecommons.org/licenses/by-sa/4.0/deed.en_US" target="_blank">CC BY-SA</a></tspan></text></g></g></svg>
